!!!!SEGMENT: pl-wtm--r-1350--001-007_stefani-jozef--fraszka-muzyczna-taniec-sabaudzki.krn
!!!cenid: 18xx:1856
!!!COM: Stefani, Józef
!!!COM-rismID: pe30024097
!!!CDT: 1800/04/16-1876/03/19
!!!CNT: Polish
!!!GTL: Fraszka muzyczna
!!!OTL: Taniec sabaudzki
!!!OMV: 007
!!!PDT:
!!!AGN: Secular
!!!YEC: Copyright 2022 Narodowy Instytut Fryderyka Chopina (https://polishscores.org)
!!!YEM: License CC-BY-4.0 (https://creativecommons.org/licenses/by/4.0)
!!!SMS-siglum: PL-Wtm
!!!SMS-shelfmark: R 1350
!!!SMS-shelfwork: 001-007 G
!!!SMS-variant:
!!!SMS-altvar:
!!!NIFC-rismSourceID: 1001119433
!!!NIFC-rismChildID: 1001119468
!!!NIFC-islandoraID: pl-wtm:25286
!!!URL-pdf-islandora: https://repozytorium.nifc.pl/islandora/object/pl-wtm%3A25286/datastream/PDF/view
!!!URL-scan: https://polish.musicsources.pl/pl/lokalizacje/galeria/rekopisy/6202 @EN{Scan on Polish Music Sources Website} @PL{Skany w portalu Dziedzictwo Muzyki Polskiej w otwartym dostępie}
!!!IIIF:
!!!ONB-nifc: UWAGA: skan 0005. Następna Fraszka: Allegro
!!!AIN: 1 forte
!!!key:
**kern	**fing	**kern	**fing	**dynam
*part1	*	*part1	*	*
*staff2	*	*staff1	*	*
*Iforte	*	*Iforte	*	*
*I"Fortepiano	*	*I"Fortepiano	*	*
*I'pf	*	*I'pf	*	*
*clefG2	*	*clefG2	*	*
*k[]	*	*k[]	*	*
*a:	*	*a:	*	*
*M2/4	*	*M2/4	*	*
=1	=1	=1	=1	=1
!	!	!LO:TX:a:t=P:all\right:problem	!	!
!	!	!LO:TX:i:a:t=Andantino.	!	!LO:DY:b:rj
!	!	!LO:TX:i:a:t=Taniec Sabaudzki.	!	!
*	*	*	*below	*
8A/L	5	8a/L	1	mf
8e/	1	8cc/	3	.
8c/	3	8b/	2	.
8e/J	1	8a/J	1	.
=2	=2	=2	=2	=2
8G#X/L	5	4b\	2	.
8e/J	1	.	.	.
8d/L	2	4ee\	5	.
8e/J	1	.	.	.
=3	=3	=3	=3	=3
8A/L	5	8cc\L	.	.
8e/	1	8cc\	.	.
8c/	3	8b\	.	.
8e/J	1	8a\J	.	.
=4	=4	=4	=4	=4
8G#X/L	5	4b\	.	.
8e/J	1	.	.	.
8B/L	3	4b\	.	.
8e/J	1	.	.	.
!!LO:LB:g=original
=5	=5	=5	=5	=5
8A/L	.	8a/L	.	.
8e/	.	8cc/	.	.
8c/	.	8b/	.	.
8e/J	.	8a/J	.	.
=6	=6	=6	=6	=6
8G#X/L	.	4b\	.	.
8e/J	.	.	.	.
8d/L	.	4ee\	.	.
8e/J	.	.	.	.
=7	=7	=7	=7	=7
8A/L	.	8cc/L	.	.
8e/	.	8a/	.	.
8d/	.	8b/	.	.
8e/J	.	8cc/J	.	.
=8	=8	=8	=8	=8
*	*below	*	*	*
!LO:TX:a:t=P:problem=palcowanie z lewej strony akordu	!	!	!	!
4c 4A/	5 3	4a/	.	.
4c 4A/	.	4a/	.	.
==	==	==	==	==
*-	*-	*-	*-	*-
!!!system-decoration: {(s1,s2)}
!!!RDF**kern: > = above
!!!RDF**kern: < = below
!!!EED: Antoni Szymański
!!!EEV: 2021-05-04
!!!ENC: Andrzej Gręziak
!!!END: 2021-04-10
